packages/kaspersky-hexa-ui-icons/src/iconsSVGs/28x20/FlagMy.svg

<svg width="28" height="20" viewBox="0 0 28 20" fill="none" xmlns="http://www.w3.org/2000/svg">
<g clip-path="url(#clip0_5138_1374)">
<rect width="28" height="20" rx="2" fill="white"/>
<mask id="mask0_5138_1374" style="mask-type:luminance" maskUnits="userSpaceOnUse" x="0" y="0" width="28" height="20">
<rect width="28" height="20" rx="2" fill="white"/>
</mask>
<g mask="url(#mask0_5138_1374)">
<path fill-rule="evenodd" clip-rule="evenodd" d="M28 0H13.3333V1.33333H28V0ZM28 2.66667H13.3333V4H28V2.66667ZM13.3333 5.33333H28V6.66667H13.3333V5.33333ZM28 8H13.3333V9.33333H28V8ZM0 10.6667H28V12H0V10.6667ZM28 13.3333H0V14.6667H28V13.3333ZM0 16H28V17.3333H0V16ZM28 18.6667H0V20H28V18.6667Z" fill="#E1244A"/>
<rect width="16" height="10.6667" fill="#0C3F8E"/>
<path fill-rule="evenodd" clip-rule="evenodd" d="M7.99999 2C8.40974 2 8.80223 2.07393 9.16484 2.20919C8.48032 1.66111 7.61177 1.33333 6.66666 1.33333C4.45752 1.33333 2.66666 3.12419 2.66666 5.33333C2.66666 7.54247 4.45752 9.33333 6.66666 9.33333C7.61177 9.33333 8.48032 9.00556 9.16484 8.45748C8.80223 8.59273 8.40974 8.66667 7.99999 8.66667C6.15904 8.66667 4.66666 7.17428 4.66666 5.33333C4.66666 3.49238 6.15904 2 7.99999 2ZM9.50963 7.73592L10.6667 6.42667L11.8237 7.73592L11.5215 6.01502L13.2665 5.92672L11.7326 5.09004L12.7515 3.67069L11.141 4.34827L10.6667 2.66667L10.1923 4.34827L8.58177 3.67069L9.60074 5.09004L8.06685 5.92672L9.81185 6.01502L9.50963 7.73592Z" fill="#FFD34F"/>
</g>
</g>
<defs>
<clipPath id="clip0_5138_1374">
<rect width="28" height="20" fill="white"/>
</clipPath>
</defs>
</svg>

<svg xmlns="http://www.w3.org/2000/svg" width="28" height="20" fill="none" viewBox="0 0 28 20"><g clip-path="url(#a)"><rect width="28" height="20" fill="#fff" rx="2"/><mask id="b" width="28" height="20" x="0" y="0" maskUnits="userSpaceOnUse" style="mask-type:luminance"><rect width="28" height="20" fill="#fff" rx="2"/></mask><g mask="url(#b)"><path fill="#e1244a" fill-rule="evenodd" d="M28 0H13.3333v1.3333H28zm0 2.6667H13.3333V4H28zM13.3333 5.3333H28v1.3334H13.3333zM28 8H13.3333v1.3333H28zM0 10.6667h28V12H0zm28 2.6666H0v1.3334h28zM0 16h28v1.3333H0zm28 2.6667H0V20h28z" clip-rule="evenodd"/><path fill="#0c3f8e" d="M0 0h16v10.6667H0z"/><path fill="#ffd34f" fill-rule="evenodd" d="M8 2c.4097 0 .8022.074 1.1648.2092a3.983 3.983 0 0 0-2.4981-.8759c-2.2092 0-4 1.7909-4 4s1.7908 4 4 4a3.983 3.983 0 0 0 2.4981-.8758A3.33 3.33 0 0 1 8 8.6667c-1.841 0-3.3333-1.4924-3.3333-3.3334S6.159 2 8 2m1.5096 5.736 1.1571-1.3093 1.157 1.3092-.3022-1.7209 1.745-.0883-1.5339-.8367 1.0189-1.4193-1.6105.6776-.4743-1.6816-.4744 1.6816-1.6105-.6776L9.6008 5.09l-1.534.8367 1.745.0883z" clip-rule="evenodd"/></g></g><defs><clipPath id="a"><path fill="#fff" d="M0 0h28v20H0z"/></clipPath></defs></svg>
